!!! OTL: Berkowitz317
!!! Chapter: 1
!!! Section: III
!!! Page: 77
!!! Mode: 
!!! Encoder: DJB
**kern
*staff1
*I"Piano
=1-
*clefF4
*k[b-e-]
*g:
*M3/4
4c\
4D\
4F#\
=2
8G\L
8A\J
4B-\
8r
8G\
=3
4e-\
4F\
4e-\
=4
2d\
4B-\
=5
4c\
4D\
4c\
=6
8B-\L
8A\J
4B-\
4G\
=7
4BB-/
4A\
4r
=8
4A\
4BB-/
4r
=9
4F#\
8F#\L
8En\J
8F#\L
8A\J
=10
2G\
4r
==
*-
